dist/images/icons/angle-down_ba6e77a8.svg

<?xml version="1.0" encoding="UTF-8"?>
<svg width="24px" height="24px" viewBox="0 0 24 24" version="1.1" xmlns="http://www.w3.org/2000/svg" xmlns:xlink="http://www.w3.org/1999/xlink">
    <g id="Symbols" stroke="none" stroke-width="1" fill="none" fill-rule="evenodd">
        <g id="icon/expand_more_alt">
            <polygon id="Bounds" points="0 0 24 0 24 24 0 24"></polygon>
            <path style="fill: #02a090" d="M17.7072697,13.2992251 L12.7008019,8.28504178 C12.5006576,8.09501393 12.2670075,8 12.0000135,8 C11.7278668,8 11.4968335,8.09498695 11.3067787,8.28504178 L6.29264937,13.2992251 C6.09752281,13.4942707 6,13.7279478 6,14.0000944 C6,14.2774207 6.09763072,14.508427 6.29264937,14.6932213 L6.87025959,15.2708855 C7.05516176,15.4659311 7.28624901,15.5636427 7.56349437,15.5636427 C7.84076669,15.5636427 8.07179999,15.4659581 8.25672914,15.2708855 L12.0000135,11.5352896 L15.7433248,15.2708045 C15.9280651,15.4657962 16.1591254,15.5635618 16.4366405,15.5635618 C16.7086253,15.5635618 16.9423833,15.4657962 17.137375,15.2708045 L17.7149312,14.6931673 C17.9049321,14.5031665 18,14.2721062 18,14.0000405 C18,13.7278399 17.9025042,13.4941898 17.7072697,13.2992251 Z" id="Shape" fill="#000000" transform="translate(12.000000, 11.781821) scale(1, -1) translate(-12.000000, -11.781821) "></path>
        </g>
    </g>
</svg>

<svg width="24" height="24" viewBox="0 0 24 24" version="1.1" xmlns="http://www.w3.org/2000/svg"><g id="Symbols" stroke="none" stroke-width="1" fill="none" fill-rule="evenodd"><g id="icon/expand_more_alt"><path id="Bounds" d="M0 0h24v24H0z"/><path d="M17.707 13.3l-5.006-5.015A.986.986 0 0012 8a.944.944 0 00-.693.285l-5.014 5.014A.956.956 0 006 14c0 .277.098.508.293.693l.577.578a.916.916 0 00.693.293.916.916 0 00.694-.293L12 11.535l3.743 3.736a.916.916 0 00.694.293.956.956 0 00.7-.293l.578-.578A.944.944 0 0018 14a.955.955 0 00-.293-.7z" id="Shape" fill="#02a090" transform="matrix(1 0 0 -1 0 23.564)"/></g></g></svg>
